icons/file-icon-sheets.svg

<svg viewBox="0 0 26 32"><path fill="#019939" d="m24.2 9.6-.6.5zm-7.3-7.7-.6.6zm-5.8 15.2a.8.8 0 1 0-1.2.8zm3.3 6.9a.8.8 0 1 0 1.2-1zm1.1-6.1a.8.8 0 0 0-1.2-.9zm-5.5 5.2a.8.8 0 0 0 1.2.9zm11 7.1h-16v1.6h16zm-19.2-3.2v-22h-1.5v22zm3.2-25.2h9.7v-1.5h-9.7zm19.3 9.9v15.3h1.4v-15.3zm.4-2.6-7.3-7.7-1 1 7.2 7.7zm1 2.6a4 4 0 0 0-1-2.6l-1 1q.5.7.6 1.6zm-11-10a2 2 0 0 1 1.6.8l1.1-1a4 4 0 0 0-2.7-1.2zm-9.7 28.6a3.3 3.3 0 0 1-3.2-3.3h-1.5a5 5 0 0 0 4.7 4.8zm16 1.4a5 5 0 0 0 4.8-4.7h-1.6a3.3 3.3 0 0 1-3.2 3.3zm-19.2-26.7a3.3 3.3 0 0 1 3.2-3.2v-1.5a5 5 0 0 0-4.7 4.7zm12.5-4v8h1.4v-8zm2.7 10.8h7.5v-1.6h-7.5zm-2.7-2.8a3 3 0 0 0 2.7 2.8v-1.6q-1.1 0-1.2-1.2zm-4.4 9 4.5 6 1.2-1-4.5-6zm4.4-1-4.3 6.1 1.2.9 4.3-6.1z"/></svg>

<svg viewBox="0 0 26 32"><path fill="#019939" d="m24.2 9.6-.6.5zM16.9 2l-.6.6zM11 17.1a.8.8 0 1 0-1.2.8zm3.3 6.9a.8.8 0 1 0 1.2-1zm1.1-6.1a.8.8 0 0 0-1.2-.9zM10 23a.8.8 0 0 0 1.2.9zm11 7.1H5v1.6h16zM1.8 27V5H.3v22zM5 1.8h9.7V.3H5zm19.3 9.9V27h1.4V11.7zm.4-2.6-7.3-7.7-1 1 7.2 7.7zm1 2.6a4 4 0 0 0-1-2.6l-1 1q.5.7.6 1.6zm-11-10a2 2 0 0 1 1.6.8l1.1-1A4 4 0 0 0 14.7.2zM5 30.4A3.3 3.3 0 0 1 1.8 27H.3A5 5 0 0 0 5 31.8zm16 1.4a5 5 0 0 0 4.8-4.7h-1.6a3.3 3.3 0 0 1-3.2 3.3zM1.8 5A3.3 3.3 0 0 1 5 1.8V.3A5 5 0 0 0 .3 5zm12.5-4v8h1.4V1zM17 11.8h7.5v-1.6H17zM14.3 9a3 3 0 0 0 2.7 2.8v-1.6q-1.1 0-1.2-1.2zm-4.4 9 4.5 6 1.2-1-4.5-6zm4.4-1L10 23.1l1.2.9 4.3-6.1z"/></svg>
